app/assets/images/heroicons/mini/receipt-percent.svg

<svg width="20" height="20" viewBox="0 0 20 20" fill="none" xmlns="http://www.w3.org/2000/svg">
<path fill-rule="evenodd" clip-rule="evenodd" d="M4.93005 2.31046C6.5916 2.10551 8.28365 2 10 2C11.7163 2 13.4084 2.10551 15.07 2.31046C16.1942 2.44913 17 3.41374 17 4.51661V17.25C17 17.5078 16.8676 17.7475 16.6494 17.8848C16.4312 18.0221 16.1578 18.0377 15.9255 17.9261L13.125 16.5819L10.3245 17.9261C10.1194 18.0246 9.88061 18.0246 9.67545 17.9261L6.875 16.5819L4.07455 17.9261C3.84215 18.0377 3.56875 18.0221 3.35057 17.8848C3.13239 17.7475 3 17.5078 3 17.25V4.51661C3 3.41374 3.80579 2.44913 4.93005 2.31046ZM13.7803 7.28033C14.0732 6.98744 14.0732 6.51256 13.7803 6.21967C13.4874 5.92678 13.0126 5.92678 12.7197 6.21967L6.21967 12.7197C5.92678 13.0126 5.92678 13.4874 6.21967 13.7803C6.51256 14.0732 6.98744 14.0732 7.28033 13.7803L13.7803 7.28033ZM9 8C9 8.55228 8.55228 9 8 9C7.44772 9 7 8.55228 7 8C7 7.44772 7.44772 7 8 7C8.55228 7 9 7.44772 9 8ZM12 13C12.5523 13 13 12.5523 13 12C13 11.4477 12.5523 11 12 11C11.4477 11 11 11.4477 11 12C11 12.5523 11.4477 13 12 13Z" fill="#0F172A"/>
</svg>

<svg xmlns="http://www.w3.org/2000/svg" viewBox="0 0 20 20" fill="currentColor" aria-hidden="true" data-slot="icon">
  <path fill-rule="evenodd" d="M4.93 2.31a41.401 41.401 0 0 1 10.14 0C16.194 2.45 17 3.414 17 4.517V17.25a.75.75 0 0 1-1.075.676l-2.8-1.344-2.8 1.344a.75.75 0 0 1-.65 0l-2.8-1.344-2.8 1.344A.75.75 0 0 1 3 17.25V4.517c0-1.103.806-2.068 1.93-2.207Zm8.85 4.97a.75.75 0 0 0-1.06-1.06l-6.5 6.5a.75.75 0 1 0 1.06 1.06l6.5-6.5ZM9 8a1 1 0 1 1-2 0 1 1 0 0 1 2 0Zm3 5a1 1 0 1 0 0-2 1 1 0 0 0 0 2Z" clip-rule="evenodd"/>
</svg>
